net_optim/media/tes.svg

<svg xmlns="http://www.w3.org/2000/svg" xmlns:xlink="http://www.w3.org/1999/xlink" width="169.885" height="87.155" version="1.1" viewBox="0 0 127.414 65.366"><defs><g><symbol id="glyph0-0" overflow="visible"><path style="stroke:none"/></symbol><symbol id="glyph0-1" overflow="visible"><path style="stroke:none" d="M 4.078125 -0.6875 C 4.234375 -0.03125 4.8125 0.125 5.09375 0.125 C 5.46875 0.125 5.765625 -0.125 5.953125 -0.53125 C 6.15625 -0.96875 6.3125 -1.671875 6.3125 -1.703125 C 6.3125 -1.765625 6.265625 -1.8125 6.1875 -1.8125 C 6.078125 -1.8125 6.078125 -1.75 6.03125 -1.578125 C 5.8125 -0.75 5.59375 -0.125 5.109375 -0.125 C 4.75 -0.125 4.75 -0.515625 4.75 -0.671875 C 4.75 -0.9375 4.796875 -1.0625 4.90625 -1.5625 C 5 -1.890625 5.078125 -2.21875 5.15625 -2.546875 L 5.640625 -4.5 C 5.71875 -4.796875 5.71875 -4.8125 5.71875 -4.859375 C 5.71875 -5.03125 5.578125 -5.15625 5.40625 -5.15625 C 5.0625 -5.15625 4.96875 -4.859375 4.90625 -4.546875 C 4.78125 -4.09375 4.140625 -1.515625 4.046875 -1.09375 C 4.046875 -1.09375 3.578125 -0.125 2.703125 -0.125 C 2.078125 -0.125 1.953125 -0.65625 1.953125 -1.09375 C 1.953125 -1.78125 2.296875 -2.734375 2.609375 -3.53125 C 2.75 -3.921875 2.8125 -4.078125 2.8125 -4.3125 C 2.8125 -4.828125 2.4375 -5.265625 1.859375 -5.265625 C 0.765625 -5.265625 0.328125 -3.53125 0.328125 -3.4375 C 0.328125 -3.390625 0.375 -3.328125 0.453125 -3.328125 C 0.5625 -3.328125 0.578125 -3.375 0.625 -3.546875 C 0.90625 -4.578125 1.375 -5.03125 1.828125 -5.03125 C 1.953125 -5.03125 2.140625 -5.015625 2.140625 -4.640625 C 2.140625 -4.328125 2.015625 -3.984375 1.828125 -3.53125 C 1.296875 -2.109375 1.25 -1.65625 1.25 -1.296875 C 1.25 -0.078125 2.15625 0.125 2.65625 0.125 C 3.421875 0.125 3.84375 -0.40625 4.078125 -0.6875 Z M 4.078125 -0.6875"/></symbol><symbol id="glyph0-2" overflow="visible"><path style="stroke:none" d="M 4.984375 -7.296875 C 5.0625 -7.578125 5.078125 -7.6875 5.265625 -7.734375 C 5.359375 -7.75 5.75 -7.75 6 -7.75 C 7.203125 -7.75 7.75 -7.703125 7.75 -6.78125 C 7.75 -6.59375 7.703125 -6.140625 7.640625 -5.703125 L 7.625 -5.5625 C 7.625 -5.515625 7.671875 -5.4375 7.75 -5.4375 C 7.859375 -5.4375 7.859375 -5.5 7.90625 -5.6875 L 8.25 -7.8125 C 8.265625 -7.90625 8.265625 -7.9375 8.265625 -7.96875 C 8.265625 -8.109375 8.203125 -8.109375 7.953125 -8.109375 L 1.421875 -8.109375 C 1.140625 -8.109375 1.140625 -8.09375 1.0625 -7.875 L 0.328125 -5.71875 C 0.328125 -5.703125 0.28125 -5.5625 0.28125 -5.5625 C 0.28125 -5.5 0.328125 -5.4375 0.40625 -5.4375 C 0.5 -5.4375 0.53125 -5.484375 0.578125 -5.640625 C 1.078125 -7.09375 1.328125 -7.75 2.921875 -7.75 L 3.71875 -7.75 C 4 -7.75 4.125 -7.75 4.125 -7.625 C 4.125 -7.59375 4.125 -7.5625 4.0625 -7.34375 L 2.46875 -0.9375 C 2.34375 -0.46875 2.3125 -0.34375 1.046875 -0.34375 C 0.75 -0.34375 0.671875 -0.34375 0.671875 -0.125 C 0.671875 0 0.796875 0 0.859375 0 C 1.15625 0 1.46875 -0.03125 1.765625 -0.03125 L 3.640625 -0.03125 C 3.9375 -0.03125 4.25 0 4.546875 0 C 4.6875 0 4.8125 0 4.8125 -0.234375 C 4.8125 -0.34375 4.71875 -0.34375 4.40625 -0.34375 C 3.328125 -0.34375 3.328125 -0.453125 3.328125 -0.640625 C 3.328125 -0.640625 3.328125 -0.734375 3.375 -0.921875 Z M 4.984375 -7.296875"/></symbol><symbol id="glyph0-3" overflow="visible"><path style="stroke:none" d="M 2.203125 -0.578125 C 2.203125 -0.921875 1.90625 -1.15625 1.625 -1.15625 C 1.28125 -1.15625 1.046875 -0.875 1.046875 -0.578125 C 1.046875 -0.234375 1.328125 0 1.609375 0 C 1.953125 0 2.203125 -0.28125 2.203125 -0.578125 Z M 2.203125 -0.578125"/></symbol><symbol id="glyph1-0" overflow="visible"><path style="stroke:none"/></symbol><symbol id="glyph1-1" overflow="visible"><path style="stroke:none" d="M 3.296875 -4.96875 C 3.296875 -5.125 3.171875 -5.28125 2.984375 -5.28125 C 2.734375 -5.28125 2.53125 -5.046875 2.53125 -4.84375 C 2.53125 -4.6875 2.65625 -4.546875 2.84375 -4.546875 C 3.078125 -4.546875 3.296875 -4.765625 3.296875 -4.96875 Z M 1.625 0.390625 C 1.5 0.890625 1.109375 1.40625 0.625 1.40625 C 0.5 1.40625 0.375 1.375 0.359375 1.359375 C 0.609375 1.25 0.640625 1.03125 0.640625 0.953125 C 0.640625 0.765625 0.5 0.65625 0.328125 0.65625 C 0.109375 0.65625 -0.109375 0.859375 -0.109375 1.125 C -0.109375 1.421875 0.1875 1.625 0.640625 1.625 C 1.125 1.625 2 1.328125 2.234375 0.359375 L 2.953125 -2.484375 C 2.984375 -2.578125 3 -2.640625 3 -2.765625 C 3 -3.203125 2.640625 -3.515625 2.1875 -3.515625 C 1.34375 -3.515625 0.84375 -2.40625 0.84375 -2.296875 C 0.84375 -2.21875 0.90625 -2.1875 0.96875 -2.1875 C 1.046875 -2.1875 1.0625 -2.21875 1.109375 -2.328125 C 1.359375 -2.890625 1.765625 -3.296875 2.15625 -3.296875 C 2.328125 -3.296875 2.421875 -3.171875 2.421875 -2.921875 C 2.421875 -2.8125 2.40625 -2.6875 2.375 -2.578125 Z M 1.625 0.390625"/></symbol><symbol id="glyph1-2" overflow="visible"><path style="stroke:none" d="M 2.375 -4.96875 C 2.375 -5.140625 2.25 -5.28125 2.0625 -5.28125 C 1.859375 -5.28125 1.625 -5.078125 1.625 -4.84375 C 1.625 -4.671875 1.75 -4.546875 1.9375 -4.546875 C 2.140625 -4.546875 2.375 -4.734375 2.375 -4.96875 Z M 1.21875 -2.046875 L 0.78125 -0.953125 C 0.734375 -0.828125 0.703125 -0.734375 0.703125 -0.59375 C 0.703125 -0.203125 1 0.078125 1.421875 0.078125 C 2.203125 0.078125 2.53125 -1.03125 2.53125 -1.140625 C 2.53125 -1.21875 2.46875 -1.25 2.40625 -1.25 C 2.3125 -1.25 2.296875 -1.1875 2.265625 -1.109375 C 2.09375 -0.46875 1.765625 -0.140625 1.4375 -0.140625 C 1.34375 -0.140625 1.25 -0.1875 1.25 -0.390625 C 1.25 -0.59375 1.3125 -0.734375 1.40625 -0.984375 C 1.484375 -1.1875 1.5625 -1.40625 1.65625 -1.625 L 1.90625 -2.265625 C 1.96875 -2.453125 2.078125 -2.703125 2.078125 -2.84375 C 2.078125 -3.234375 1.75 -3.515625 1.34375 -3.515625 C 0.578125 -3.515625 0.234375 -2.40625 0.234375 -2.296875 C 0.234375 -2.21875 0.296875 -2.1875 0.359375 -2.1875 C 0.46875 -2.1875 0.46875 -2.234375 0.5 -2.3125 C 0.71875 -3.078125 1.078125 -3.296875 1.328125 -3.296875 C 1.4375 -3.296875 1.515625 -3.25 1.515625 -3.03125 C 1.515625 -2.953125 1.5 -2.84375 1.421875 -2.59375 Z M 1.21875 -2.046875"/></symbol><symbol id="glyph1-3" overflow="visible"><path style="stroke:none" d="M 6.34375 -5.390625 C 6.34375 -5.421875 6.359375 -5.46875 6.359375 -5.515625 C 6.359375 -5.5625 6.3125 -5.609375 6.265625 -5.609375 C 6.203125 -5.609375 6.1875 -5.59375 6.125 -5.515625 L 5.5625 -4.90625 C 5.484375 -5 5.0625 -5.609375 4.140625 -5.609375 C 2.28125 -5.609375 0.421875 -3.890625 0.421875 -2.0625 C 0.421875 -0.671875 1.46875 0.171875 2.734375 0.171875 C 3.78125 0.171875 4.671875 -0.46875 5.09375 -1.09375 C 5.359375 -1.484375 5.46875 -1.859375 5.46875 -1.90625 C 5.46875 -1.984375 5.421875 -2.015625 5.34375 -2.015625 C 5.25 -2.015625 5.234375 -1.96875 5.21875 -1.890625 C 4.875 -0.78125 3.796875 -0.09375 2.84375 -0.09375 C 2.03125 -0.09375 1.171875 -0.578125 1.171875 -1.796875 C 1.171875 -2.046875 1.265625 -3.375 2.15625 -4.375 C 2.75 -5.046875 3.5625 -5.34375 4.1875 -5.34375 C 5.203125 -5.34375 5.609375 -4.546875 5.609375 -3.78125 C 5.609375 -3.671875 5.578125 -3.515625 5.578125 -3.421875 C 5.578125 -3.328125 5.6875 -3.328125 5.71875 -3.328125 C 5.8125 -3.328125 5.828125 -3.359375 5.859375 -3.5 Z M 6.34375 -5.390625"/></symbol><symbol id="glyph1-4" overflow="visible"><path style="stroke:none" d="M 2.515625 -2.484375 L 3.953125 -2.484375 C 5.109375 -2.484375 6.296875 -3.28125 6.296875 -4.21875 C 6.296875 -4.90625 5.671875 -5.4375 4.640625 -5.4375 L 1.953125 -5.4375 C 1.8125 -5.4375 1.703125 -5.4375 1.703125 -5.296875 C 1.703125 -5.171875 1.8125 -5.171875 1.9375 -5.171875 C 2.203125 -5.171875 2.4375 -5.171875 2.4375 -5.046875 C 2.4375 -5.015625 2.421875 -5.015625 2.40625 -4.90625 L 1.328125 -0.625 C 1.265625 -0.328125 1.25 -0.265625 0.671875 -0.265625 C 0.5 -0.265625 0.40625 -0.265625 0.40625 -0.109375 C 0.40625 -0.078125 0.4375 0 0.53125 0 C 0.6875 0 0.875 -0.015625 1.03125 -0.03125 L 1.53125 -0.03125 C 2.296875 -0.03125 2.515625 0 2.5625 0 C 2.609375 0 2.71875 0 2.71875 -0.15625 C 2.71875 -0.265625 2.625 -0.265625 2.484375 -0.265625 C 2.46875 -0.265625 2.3125 -0.265625 2.1875 -0.28125 C 2.015625 -0.296875 2 -0.3125 2 -0.390625 C 2 -0.4375 2.015625 -0.484375 2.03125 -0.515625 Z M 3.09375 -4.890625 C 3.15625 -5.15625 3.171875 -5.171875 3.5 -5.171875 L 4.375 -5.171875 C 5.03125 -5.171875 5.53125 -4.984375 5.53125 -4.40625 C 5.53125 -4.296875 5.484375 -3.578125 5.046875 -3.140625 C 4.921875 -3.03125 4.546875 -2.71875 3.765625 -2.71875 L 2.546875 -2.71875 Z M 3.09375 -4.890625"/></symbol><symbol id="glyph2-0" overflow="visible"><path style="stroke:none"/></symbol><symbol id="glyph2-1" overflow="visible"><path style="stroke:none" d="M 7.875 -2.75 C 8.078125 -2.75 8.296875 -2.75 8.296875 -2.984375 C 8.296875 -3.234375 8.078125 -3.234375 7.875 -3.234375 L 1.40625 -3.234375 C 1.203125 -3.234375 0.984375 -3.234375 0.984375 -2.984375 C 0.984375 -2.75 1.203125 -2.75 1.40625 -2.75 Z M 7.875 -2.75"/></symbol><symbol id="glyph3-0" overflow="visible"><path style="stroke:none"/></symbol><symbol id="glyph3-1" overflow="visible"><path style="stroke:none" d="M 4.3125 -7.78125 C 4.3125 -8.015625 4.3125 -8.0625 4.140625 -8.0625 C 4.046875 -8.0625 4.015625 -8.0625 3.921875 -7.921875 L 0.328125 -2.34375 L 0.328125 -2 L 3.46875 -2 L 3.46875 -0.90625 C 3.46875 -0.46875 3.4375 -0.34375 2.5625 -0.34375 L 2.328125 -0.34375 L 2.328125 0 C 2.609375 -0.03125 3.546875 -0.03125 3.890625 -0.03125 C 4.21875 -0.03125 5.171875 -0.03125 5.453125 0 L 5.453125 -0.34375 L 5.21875 -0.34375 C 4.34375 -0.34375 4.3125 -0.46875 4.3125 -0.90625 L 4.3125 -2 L 5.515625 -2 L 5.515625 -2.34375 L 4.3125 -2.34375 Z M 3.53125 -6.84375 L 3.53125 -2.34375 L 0.625 -2.34375 Z M 3.53125 -6.84375"/></symbol><symbol id="glyph3-2" overflow="visible"><path style="stroke:none" d="M 3.4375 -7.65625 C 3.4375 -7.9375 3.4375 -7.953125 3.203125 -7.953125 C 2.921875 -7.625 2.3125 -7.1875 1.09375 -7.1875 L 1.09375 -6.84375 C 1.359375 -6.84375 1.953125 -6.84375 2.625 -7.140625 L 2.625 -0.921875 C 2.625 -0.484375 2.578125 -0.34375 1.53125 -0.34375 L 1.15625 -0.34375 L 1.15625 0 C 1.484375 -0.03125 2.640625 -0.03125 3.03125 -0.03125 C 3.4375 -0.03125 4.578125 -0.03125 4.90625 0 L 4.90625 -0.34375 L 4.53125 -0.34375 C 3.484375 -0.34375 3.4375 -0.484375 3.4375 -0.921875 Z M 3.4375 -7.65625"/></symbol><symbol id="glyph3-3" overflow="visible"><path style="stroke:none" d="M 1.53125 -6.84375 C 2.046875 -6.6875 2.46875 -6.671875 2.59375 -6.671875 C 3.9375 -6.671875 4.8125 -7.65625 4.8125 -7.828125 C 4.8125 -7.875 4.78125 -7.9375 4.703125 -7.9375 C 4.6875 -7.9375 4.65625 -7.9375 4.546875 -7.890625 C 3.890625 -7.609375 3.3125 -7.5625 3 -7.5625 C 2.21875 -7.5625 1.65625 -7.8125 1.421875 -7.90625 C 1.34375 -7.9375 1.3125 -7.9375 1.296875 -7.9375 C 1.203125 -7.9375 1.203125 -7.859375 1.203125 -7.671875 L 1.203125 -4.125 C 1.203125 -3.90625 1.203125 -3.84375 1.34375 -3.84375 C 1.40625 -3.84375 1.421875 -3.84375 1.546875 -4 C 1.875 -4.484375 2.4375 -4.765625 3.03125 -4.765625 C 3.671875 -4.765625 3.984375 -4.1875 4.078125 -3.984375 C 4.28125 -3.515625 4.296875 -2.921875 4.296875 -2.46875 C 4.296875 -2.015625 4.296875 -1.34375 3.953125 -0.796875 C 3.6875 -0.375 3.234375 -0.078125 2.703125 -0.078125 C 1.90625 -0.078125 1.140625 -0.609375 0.921875 -1.484375 C 0.984375 -1.453125 1.046875 -1.453125 1.109375 -1.453125 C 1.3125 -1.453125 1.640625 -1.5625 1.640625 -1.96875 C 1.640625 -2.3125 1.40625 -2.5 1.109375 -2.5 C 0.890625 -2.5 0.578125 -2.390625 0.578125 -1.921875 C 0.578125 -0.90625 1.40625 0.25 2.71875 0.25 C 4.078125 0.25 5.265625 -0.890625 5.265625 -2.40625 C 5.265625 -3.828125 4.296875 -5.015625 3.046875 -5.015625 C 2.359375 -5.015625 1.84375 -4.703125 1.53125 -4.375 Z M 1.53125 -6.84375"/></symbol></g><clipPath id="clip1"><path d="M 96 21 L 127.414062 21 L 127.414062 58 L 96 58 Z M 96 21"/></clipPath><clipPath id="clip2"><path d="M 19 40 L 110 40 L 110 65.367188 L 19 65.367188 Z M 19 40"/></clipPath></defs><g id="surface1"><path style="stroke:none;fill-rule:nonzero;fill:#cceffc;fill-opacity:1" d="M 126.714844 39.222656 C 126.714844 32.355469 121.148438 26.789062 114.28125 26.789062 C 107.410156 26.789062 101.84375 32.355469 101.84375 39.222656 C 101.84375 46.09375 107.410156 51.660156 114.28125 51.660156 C 121.148438 51.660156 126.714844 46.09375 126.714844 39.222656 Z M 126.714844 39.222656"/><g clip-path="url(#clip1)" clip-rule="nonzero"><path style="fill:none;stroke-width:.3985;stroke-linecap:butt;stroke-linejoin:miter;stroke:#000;stroke-opacity:1;stroke-miterlimit:10" d="M 63.456844 0.00134375 C 63.456844 6.868531 57.890437 12.434938 51.02325 12.434938 C 44.152156 12.434938 38.58575 6.868531 38.58575 0.00134375 C 38.58575 -6.86975 44.152156 -12.436156 51.02325 -12.436156 C 57.890437 -12.436156 63.456844 -6.86975 63.456844 0.00134375 Z M 63.456844 0.00134375" transform="matrix(1,0,0,-1,63.258,39.224)"/></g><g style="fill:#000;fill-opacity:1"><use x="108.757" y="40.127" xlink:href="#glyph0-1"/></g><g style="fill:#000;fill-opacity:1"><use x="115.42" y="41.92" xlink:href="#glyph1-1"/></g><path style="fill-rule:nonzero;fill:#cceffc;fill-opacity:1;stroke-width:.3985;stroke-linecap:butt;stroke-linejoin:miter;stroke:#000;stroke-opacity:1;stroke-miterlimit:10" d="M -39.484563 0.00134375 C -39.484563 6.372438 -44.648625 11.5365 -51.023625 11.5365 C -57.394719 11.5365 -62.558781 6.372438 -62.558781 0.00134375 C -62.558781 -6.373656 -57.394719 -11.537719 -51.023625 -11.537719 C -44.648625 -11.537719 -39.484563 -6.373656 -39.484563 0.00134375 Z M -39.484563 0.00134375" transform="matrix(1,0,0,-1,63.258,39.224)"/><g style="fill:#000;fill-opacity:1"><use x="7.215" y="40.901" xlink:href="#glyph0-1"/></g><g style="fill:#000;fill-opacity:1"><use x="13.877" y="42.695" xlink:href="#glyph1-2"/></g><path style="fill:none;stroke-width:.3985;stroke-linecap:butt;stroke-linejoin:miter;stroke:#000;stroke-opacity:1;stroke-miterlimit:10" d="M -41.406438 6.731813 C -15.300969 25.25525 14.33575 25.44275 37.718562 9.2865" transform="matrix(1,0,0,-1,63.258,39.224)"/><path style="stroke:none;fill-rule:nonzero;fill:#000;fill-opacity:1" d="M 103.929688 31.976562 C 103.167969 31.207031 102.085938 29.734375 101.496094 28.480469 L 99.796875 30.941406 C 101.179688 31.046875 102.941406 31.535156 103.929688 31.976562"/><g style="fill:#000;fill-opacity:1"><use x="42.32" y="12.571" xlink:href="#glyph0-2"/></g><g style="fill:#000;fill-opacity:1"><use x="49.181" y="14.364" xlink:href="#glyph1-3"/></g><g style="fill:#000;fill-opacity:1"><use x="55.783" y="14.364" xlink:href="#glyph1-4"/></g><g style="fill:#000;fill-opacity:1"><use x="65.48" y="12.571" xlink:href="#glyph2-1"/></g><g style="fill:#000;fill-opacity:1"><use x="77.435" y="12.571" xlink:href="#glyph3-1"/></g><g clip-path="url(#clip2)" clip-rule="nonzero"><path style="fill:none;stroke-width:.3985;stroke-linecap:butt;stroke-linejoin:miter;stroke:#000;stroke-opacity:1;stroke-miterlimit:10" d="M 40.671687 -7.248656 C 14.33575 -25.443969 -15.300969 -25.256469 -38.468938 -8.818969" transform="matrix(1,0,0,-1,63.258,39.224)"/></g><path style="stroke:none;fill-rule:nonzero;fill:#000;fill-opacity:1" d="M 21.851562 45.957031 C 22.605469 46.738281 23.675781 48.230469 24.246094 49.496094 L 25.984375 47.050781 C 24.601562 46.925781 22.839844 46.410156 21.851562 45.957031"/><g style="fill:#000;fill-opacity:1"><use x="55.325" y="55.883" xlink:href="#glyph3-2"/></g><g style="fill:#000;fill-opacity:1"><use x="61.178" y="55.883" xlink:href="#glyph0-3"/></g><g style="fill:#000;fill-opacity:1"><use x="64.43" y="55.883" xlink:href="#glyph3-3"/></g></g></svg>

<svg xmlns="http://www.w3.org/2000/svg" xmlns:xlink="http://www.w3.org/1999/xlink" width="169.885" height="87.155" viewBox="0 0 127.414 65.366"><defs><symbol id="b" overflow="visible"><path style="stroke:none" d="M4.078-.688c.156.657.734.813 1.016.813.375 0 .672-.25.86-.656.202-.438.359-1.14.359-1.172 0-.063-.047-.11-.125-.11-.11 0-.11.063-.157.235-.218.828-.437 1.453-.922 1.453-.359 0-.359-.39-.359-.547 0-.265.047-.39.156-.89.094-.329.172-.657.25-.985L5.641-4.5c.078-.297.078-.313.078-.36 0-.171-.14-.296-.313-.296-.343 0-.437.297-.5.61-.125.452-.765 3.03-.86 3.452 0 0-.468.969-1.343.969-.625 0-.75-.531-.75-.969 0-.687.344-1.64.656-2.437.141-.39.204-.547.204-.781 0-.516-.376-.954-.954-.954C.766-5.266.33-3.53.33-3.437c0 .046.046.109.124.109.11 0 .125-.047.172-.219.281-1.031.75-1.484 1.203-1.484.125 0 .313.015.313.39 0 .313-.125.657-.313 1.11-.531 1.422-.578 1.875-.578 2.234 0 1.219.906 1.422 1.406 1.422.766 0 1.188-.531 1.422-.813Zm0 0"/></symbol><symbol id="e" overflow="visible"><path style="stroke:none" d="M4.984-7.297c.079-.281.094-.39.282-.437.093-.016.484-.016.734-.016 1.203 0 1.75.047 1.75.969 0 .187-.047.64-.11 1.078l-.015.14c0 .047.047.125.125.125.11 0 .11-.062.156-.25l.344-2.125c.016-.093.016-.125.016-.156 0-.14-.063-.14-.313-.14H1.422c-.281 0-.281.015-.36.234L.329-5.719c0 .016-.047.157-.047.157 0 .062.047.125.125.125.094 0 .125-.047.172-.204.5-1.453.75-2.109 2.344-2.109h.797c.281 0 .406 0 .406.125 0 .031 0 .063-.063.281L2.47-.937c-.125.468-.156.593-1.422.593-.297 0-.375 0-.375.219C.672 0 .797 0 .859 0c.297 0 .61-.031.907-.031H3.64c.296 0 .609.031.906.031.14 0 .266 0 .266-.234 0-.11-.094-.11-.407-.11-1.078 0-1.078-.11-1.078-.297 0 0 0-.093.047-.28Zm0 0"/></symbol><symbol id="l" overflow="visible"><path style="stroke:none" d="M2.203-.578a.586.586 0 0 0-.578-.578.576.576 0 0 0-.578.578c0 .344.281.578.562.578a.59.59 0 0 0 .594-.578Zm0 0"/></symbol><symbol id="c" overflow="visible"><path style="stroke:none" d="M3.297-4.969a.313.313 0 0 0-.313-.312.473.473 0 0 0-.453.437.3.3 0 0 0 .313.297c.234 0 .453-.219.453-.422ZM1.625.391c-.125.5-.516 1.015-1 1.015a.653.653 0 0 1-.266-.047.445.445 0 0 0 .282-.406C.64.766.5.656.328.656c-.219 0-.437.203-.437.469 0 .297.296.5.75.5.484 0 1.359-.297 1.593-1.266l.72-2.843A.757.757 0 0 0 3-2.766c0-.437-.36-.75-.813-.75-.843 0-1.343 1.11-1.343 1.22 0 .077.062.108.125.108.078 0 .094-.03.14-.14.25-.563.657-.969 1.047-.969.172 0 .266.125.266.375 0 .11-.016.235-.047.344Zm0 0"/></symbol><symbol id="d" overflow="visible"><path style="stroke:none" d="M2.375-4.969a.304.304 0 0 0-.313-.312c-.203 0-.437.203-.437.437 0 .172.125.297.313.297.203 0 .437-.187.437-.422ZM1.219-2.047.78-.953a.927.927 0 0 0-.078.36c0 .39.297.671.719.671.781 0 1.11-1.11 1.11-1.219 0-.078-.063-.109-.126-.109-.094 0-.11.063-.14.14-.172.641-.5.97-.829.97-.093 0-.187-.047-.187-.25 0-.204.063-.344.156-.594.078-.204.157-.422.25-.641l.25-.64c.063-.188.172-.438.172-.579 0-.39-.328-.672-.734-.672-.766 0-1.11 1.11-1.11 1.22 0 .077.063.108.125.108.11 0 .11-.046.141-.124.219-.766.578-.985.828-.985.11 0 .188.047.188.266 0 .078-.016.187-.094.437Zm0 0"/></symbol><symbol id="f" overflow="visible"><path style="stroke:none" d="M6.344-5.39c0-.032.015-.079.015-.126a.1.1 0 0 0-.093-.093c-.063 0-.079.015-.141.093l-.563.61c-.078-.094-.5-.703-1.421-.703C2.28-5.61.42-3.891.42-2.063.422-.671 1.47.172 2.735.172c1.047 0 1.938-.64 2.36-1.266.265-.39.375-.765.375-.812 0-.078-.047-.11-.125-.11-.094 0-.11.047-.125.125C4.875-.78 3.797-.094 2.844-.094c-.813 0-1.672-.484-1.672-1.703 0-.25.094-1.578.984-2.578.594-.672 1.406-.969 2.031-.969 1.016 0 1.422.797 1.422 1.563 0 .11-.03.265-.03.36 0 .093.109.093.14.093.093 0 .11-.031.14-.172Zm0 0"/></symbol><symbol id="g" overflow="visible"><path style="stroke:none" d="M2.516-2.484h1.437c1.156 0 2.344-.797 2.344-1.735 0-.687-.625-1.218-1.656-1.218H1.953c-.14 0-.25 0-.25.14 0 .125.11.125.234.125.266 0 .5 0 .5.125 0 .031-.015.031-.03.14L1.327-.624c-.062.297-.078.36-.656.36-.172 0-.266 0-.266.156 0 .03.031.109.125.109.156 0 .344-.016.5-.031h.5c.766 0 .985.031 1.032.031.046 0 .156 0 .156-.156 0-.11-.094-.11-.235-.11-.015 0-.171 0-.296-.015C2.015-.297 2-.312 2-.391a.31.31 0 0 1 .031-.125Zm.578-2.407c.062-.265.078-.28.406-.28h.875c.656 0 1.156.187 1.156.765 0 .11-.047.828-.484 1.265-.125.11-.5.422-1.281.422h-1.22Zm0 0"/></symbol><symbol id="h" overflow="visible"><path style="stroke:none" d="M7.875-2.75c.203 0 .422 0 .422-.234 0-.25-.219-.25-.422-.25H1.406c-.203 0-.422 0-.422.25 0 .234.22.234.422.234Zm0 0"/></symbol><symbol id="i" overflow="visible"><path style="stroke:none" d="M4.313-7.781c0-.235 0-.282-.172-.282-.094 0-.125 0-.22.141L.329-2.344V-2h3.14v1.094c0 .437-.03.562-.905.562h-.235V0c.281-.031 1.219-.031 1.563-.031.328 0 1.28 0 1.562.031v-.344H5.22c-.875 0-.907-.125-.907-.562V-2h1.204v-.344H4.312Zm-.782.937v4.5H.625Zm0 0"/></symbol><symbol id="k" overflow="visible"><path style="stroke:none" d="M3.438-7.656c0-.282 0-.297-.235-.297-.281.328-.89.766-2.11.766v.343c.266 0 .86 0 1.532-.297v6.22c0 .437-.047.577-1.094.577h-.375V0c.328-.031 1.485-.031 1.875-.031.406 0 1.547 0 1.875.031v-.344h-.375c-1.047 0-1.093-.14-1.093-.578Zm0 0"/></symbol><symbol id="m" overflow="visible"><path style="stroke:none" d="M1.531-6.844a3.88 3.88 0 0 0 1.063.172c1.344 0 2.219-.984 2.219-1.156 0-.047-.032-.11-.11-.11-.016 0-.047 0-.156.047A3.987 3.987 0 0 1 3-7.562c-.781 0-1.344-.25-1.578-.344-.078-.032-.11-.032-.125-.032-.094 0-.094.079-.094.266v3.547c0 .219 0 .281.14.281.063 0 .079 0 .204-.156.328-.484.89-.766 1.484-.766.64 0 .953.579 1.047.782.203.468.219 1.062.219 1.515 0 .453 0 1.125-.344 1.672-.265.422-.719.719-1.25.719A1.838 1.838 0 0 1 .922-1.484a.396.396 0 0 0 .187.03c.204 0 .532-.109.532-.515 0-.343-.235-.531-.532-.531-.218 0-.53.11-.53.578C.578-.906 1.405.25 2.718.25c1.36 0 2.547-1.14 2.547-2.656 0-1.422-.97-2.61-2.22-2.61a2.08 2.08 0 0 0-1.515.641Zm0 0"/></symbol><clipPath id="a"><path d="M96 21h31.414v37H96Zm0 0"/></clipPath><clipPath id="j"><path d="M19 40h91v25.367H19Zm0 0"/></clipPath></defs><path style="stroke:none;fill-rule:nonzero;fill:#cceffc;fill-opacity:1" d="M126.715 39.223c0-6.868-5.567-12.434-12.434-12.434-6.87 0-12.437 5.566-12.437 12.434 0 6.87 5.566 12.437 12.437 12.437 6.867 0 12.434-5.566 12.434-12.437Zm0 0"/><g clip-path="url(#a)"><path style="fill:none;stroke-width:.3985;stroke-linecap:butt;stroke-linejoin:miter;stroke:#000;stroke-opacity:1;stroke-miterlimit:10" d="M63.457.001c0 6.868-5.567 12.434-12.434 12.434-6.87 0-12.437-5.566-12.437-12.434 0-6.87 5.566-12.437 12.437-12.437C57.89-12.436 63.457-6.87 63.457 0Zm0 0" transform="matrix(1 0 0 -1 63.258 39.224)"/></g><use x="108.757" y="40.127" xlink:href="#b" style="fill:#000;fill-opacity:1"/><use x="115.42" y="41.92" xlink:href="#c" style="fill:#000;fill-opacity:1"/><path style="fill-rule:nonzero;fill:#cceffc;fill-opacity:1;stroke-width:.3985;stroke-linecap:butt;stroke-linejoin:miter;stroke:#000;stroke-opacity:1;stroke-miterlimit:10" d="M-39.485.001c0 6.371-5.164 11.536-11.539 11.536-6.37 0-11.535-5.165-11.535-11.536 0-6.375 5.164-11.539 11.535-11.539 6.375 0 11.54 5.164 11.54 11.54Zm0 0" transform="matrix(1 0 0 -1 63.258 39.224)"/><use x="7.215" y="40.901" xlink:href="#b" style="fill:#000;fill-opacity:1"/><use x="13.877" y="42.695" xlink:href="#d" style="fill:#000;fill-opacity:1"/><path style="fill:none;stroke-width:.3985;stroke-linecap:butt;stroke-linejoin:miter;stroke:#000;stroke-opacity:1;stroke-miterlimit:10" d="M-41.406 6.732c26.105 18.523 55.742 18.71 79.125 2.554" transform="matrix(1 0 0 -1 63.258 39.224)"/><path style="stroke:none;fill-rule:nonzero;fill:#000;fill-opacity:1" d="M103.93 31.977c-.762-.77-1.844-2.243-2.434-3.497l-1.7 2.461c1.384.106 3.145.594 4.134 1.036"/><use x="42.32" y="12.571" xlink:href="#e" style="fill:#000;fill-opacity:1"/><use x="49.181" y="14.364" xlink:href="#f" style="fill:#000;fill-opacity:1"/><use x="55.783" y="14.364" xlink:href="#g" style="fill:#000;fill-opacity:1"/><use x="65.48" y="12.571" xlink:href="#h" style="fill:#000;fill-opacity:1"/><use x="77.435" y="12.571" xlink:href="#i" style="fill:#000;fill-opacity:1"/><g clip-path="url(#j)"><path style="fill:none;stroke-width:.3985;stroke-linecap:butt;stroke-linejoin:miter;stroke:#000;stroke-opacity:1;stroke-miterlimit:10" d="M40.672-7.249c-26.336-18.195-55.973-18.007-79.14-1.57" transform="matrix(1 0 0 -1 63.258 39.224)"/></g><path style="stroke:none;fill-rule:nonzero;fill:#000;fill-opacity:1" d="M21.852 45.957c.753.781 1.824 2.273 2.394 3.54l1.738-2.446c-1.382-.125-3.144-.64-4.132-1.094"/><use x="55.325" y="55.883" xlink:href="#k" style="fill:#000;fill-opacity:1"/><use x="61.178" y="55.883" xlink:href="#l" style="fill:#000;fill-opacity:1"/><use x="64.43" y="55.883" xlink:href="#m" style="fill:#000;fill-opacity:1"/></svg>
